X:127
T:Isabel McCullough
R:air
C: 2006,  2010 L.E. McCullough 
M:4/4
L:1/8
K:G
GA||BAAG ED2 D/E/|GAAF G3 G/A/|B>G Bd ed2 G/A/|BDGB A3 G/A/|
BGBd eg2 G/A/|Bdgd e3 g/a/|gf e>d B/d/-d2 D/E/|GAB>A G3 A/B/| 
cd e>d d/B/-B2 G/B/|de d>B A3 G/A/|BAAG c/E/-E2 D/E/|GA A>F G4||  

